packages/calcite-ui-icons/icons/layer-multipoint-24.svg

<?xml version="1.0" encoding="UTF-8"?><svg id="icons" xmlns="http://www.w3.org/2000/svg" viewBox="0 0 24 24"><defs><style>.cls-1{fill:none;}</style></defs><rect class="cls-1" width="24" height="24"/><path d="M8,10c0,.55228-.44772,1-1,1s-1-.44772-1-1,.44772-1,1-1,1,.44772,1,1ZM6,14c-.55228,0-1,.44772-1,1s.44772,1,1,1,1-.44772,1-1-.44772-1-1-1ZM11,6c-.55228,0-1,.44772-1,1s.44772,1,1,1,1-.44772,1-1-.44772-1-1-1ZM12,11c-.55228,0-1,.44772-1,1s.44772,1,1,1,1-.44772,1-1-.44772-1-1-1ZM18,9c-.55228,0-1,.44772-1,1s.44772,1,1,1,1-.44772,1-1-.44772-1-1-1ZM16,14c-.55228,0-1,.44772-1,1s.44772,1,1,1,1-.44772,1-1-.44772-1-1-1ZM10,16c-.55228,0-1,.44772-1,1s.44772,1,1,1,1-.44772,1-1-.44772-1-1-1ZM16.31073,3.2c-1.72649,0-2.54364.33593-3.48982.7249-.9978.41019-2.12874.87511-4.25029.87511-1.49583,0-2.83243-.24228-3.72304-.45691l-2.72371,15.80667c.80681.26933,2.30121.65024,4.29985.65024,2.50246,0,4.09598-.38335,5.78305-.78922,1.72623-.41528,3.51122-.84469,6.25085-.84469,1.74092,0,3.15393.25394,4.15746.52042l-2.67448-15.8715c-.70268-.23492-2.0793-.61503-3.62987-.61503M16.31073,2.2c2.48589,0,4.51978.87796,4.51978.87796l3.05086,18.10509s-2.03391-1.01695-5.42374-1.01695c-5.24208,0-6.79182,1.6339-12.03391,1.6339-3.38982,0-5.42372-1.01695-5.42372-1.01695L4.05084,3.07796s2.03391.72205,4.51978.72205c3.84805,0,3.89207-1.60001,7.74011-1.60001h0Z"/></svg>

<svg xmlns="http://www.w3.org/2000/svg" viewBox="0 0 24 24"><path d="M0 0h24v24H0z" style="fill:none"/><path d="M8 10a1 1 0 1 1-2 0 1 1 0 0 1 2 0m-2 4a1 1 0 1 0 0 2 1 1 0 0 0 0-2m5-8a1 1 0 1 0 0 2 1 1 0 0 0 0-2m1 5a1 1 0 1 0 0 2 1 1 0 0 0 0-2m6-2a1 1 0 1 0 0 2 1 1 0 0 0 0-2m-2 5a1 1 0 1 0 0 2 1 1 0 0 0 0-2m-6 2a1 1 0 1 0 0 2 1 1 0 0 0 0-2m6.31-12.8c-1.726 0-2.543.336-3.49.725-.997.41-2.128.875-4.25.875-1.495 0-2.832-.242-3.722-.457L2.124 20.15c.807.27 2.301.65 4.3.65 2.502 0 4.096-.383 5.783-.79 1.726-.414 3.511-.844 6.25-.844 1.742 0 3.155.254 4.158.52l-2.674-15.87c-.703-.235-2.08-.615-3.63-.615m0-1c2.486 0 4.52.878 4.52.878l3.05 18.105s-2.034-1.017-5.423-1.017c-5.242 0-6.792 1.634-12.034 1.634C3.034 21.8 1 20.783 1 20.783L4.05 3.078s2.035.722 4.52.722c3.849 0 3.893-1.6 7.74-1.6"/></svg>
